X:1
T:Title
%%score ( 1 2 ) 3
L:1/8
Q:1/4=112
M:4/4
K:Bb
V:1 treble nm="Grand Piano, Soprano"
V:2 treble 
V:3 bass nm="Choir Pad, College Station, Wm. Ogden"
V:1
 F2 B2- B/ z/ F D2 | [DB]2 [EG]4 [DF]2 | [DF]2 [DB]2 [DB]2 [Fc]2 | [Fd]2 [Fc]6 | %4
w: Generated~by~NoteWorthy~Composer * * * *||||
 [Fc]2 [Fd]2- [Fd][Ec] [DB]2 | [FB]2 [GB]4 [EG]2 | [GB]2 [FB]2 [FB]2 [Fd]2 | [Ec]2 [DB]6 | %8
w: ||||
 [DB]2 [Ec]2- [Ec][DB] [CA]2 | [Fc]2 [Fd]4 [DB]2 | .c2 z2 z4 | [Fd]2 [Fc]6 | %12
w: ||||
 [Fc]2 [Fd]2- [Fd][Ec] [DB]2 | [DF]2 [EG]4 [GB]2 | [^Fc]2 [=Fd]2 [FB]2 [EB]2 | [EA]2 [DB]6- | %16
w: ||||
 [DB]2 z2 z4 |] %17
w: |
V:2
 x8 | x8 | x8 | x8 | x8 | x8 | x8 | x8 | x8 | x8 | F-[Fd] [Fe]2 [Fe]2 [Fd]2 | x8 | x8 | x8 | x8 | %15
 x8 | x8 |] %17
V:3
 F,2 B,2- B,/ z/ F, D,2 | [B,,B,]2 [B,,B,]4 [B,,B,]2 | [B,,B,]2 [G,B,]2 [G,B,]2 [F,A,]2 | %3
 [F,B,]2 [F,A,]6 | [F,A,]2 [B,,B,]2- [B,,B,][B,,F,] [B,,F,]2 | [D,B,]2 [E,B,]4 [E,B,]2 | %6
 [E,E]2 [F,D]2 [F,D]2 [F,B,]2 | [F,A,]2 [B,,B,]6 | [B,,B,]2 [F,A,]2- [F,A,]F, F,2 | %9
 [F,A,]2 [B,,B,]4 [B,,F,]2 | [D,B,]2 [C,A,]2 [C,A,]2 [B,,B,]2 | [D,B,]2 [F,A,]6 | %12
 [F,A,]2 [B,,B,]2- [B,,B,][B,,F,] [B,,F,]2 | [B,,B,]2 [E,B,]4 [E,B,]2 | %14
 [E,B,]2 [F,B,]2 [F,D]2 [F,C]2 | [F,C]2 [B,,B,]6- | [B,,B,]2 z2 z4 |] %17

